X:1
T:Etude 3, Op 176
T:Jean-Baptiste Duvernoy c. 1802 – c. 1880 
%%score { 1 | 2 }
L:1/8
Q:1/4=100
M:4/4
K:C
V:1 treble nm="Piano"
V:2 bass 
V:1
"^Moderato"!p! (!3!e4 d2 c2) | (!5!g4 f4) | (!3!e4 d2 c2) | (!2!B4 G4) | (!3!e4 d2 c2) | %5
 (!5!g4 f4) | (e2 fe d2 ed | c4) z4 ||!mf! (!1!B4 c4 | d4 e4) | (f2 d2 e2 c2 | d4 B4) | (B4 c4 | %13
 d4 e4) | (f2 d2 e2 c2 |!>(! B2) (g2 f2!>)! d2) |!p! (!3!e4 d2 c2) | (!5!g4 f4) | (!3!e4 d2 c2) | %19
 (!2!B4 G4) | (!3!e4 d2 c2) | (!5!g4 f4) | (e2 fe d2 ed | c4) z4 |] %24
V:2
!pp! (!5!C,E,G,E,) (C,E,G,E,) | (!4!D,F,G,F,) (D,F,G,F,) | (C,E,G,E,) (C,E,G,E,) | %3
 (D,F,G,F,) (D,F,G,F,) | (C,E,G,E,) (C,E,G,E,) | (D,F,G,F,) (D,F,G,F,) | (C,E,G,E,) (C,F,G,F,) | %7
 (C,E,G,E,) C,2 z2 || (!5!G,B,DB,) (G,!2!CEC) | (G,B,DB,) (G,CEC) | (G,B,DB,) (G,CEC) | %11
 (G,B,DB,) (G,B,DB,) | (G,B,DB,) (G,CEC) | (G,B,DB,) (G,B,DB,) | (G,B,DB,) (G,CEC) | [G,D]4 z4 | %16
 (!5!C,E,G,E,) (C,E,G,E,) | (!4!D,F,G,F,) (D,F,G,F,) | (C,E,G,E,) (C,E,G,E,) | %19
 (D,F,G,F,) (D,F,G,F,) | (C,E,G,E,) (C,E,G,E,) | (D,F,G,F,) (D,F,G,F,) | (C,E,G,E,) (C,F,G,F,) | %23
 (C,E,G,E,) C,2 z2 |] %24

